static/img/showcase/medblock.svg

<svg fill="none" height="59" viewBox="0 0 80 59" width="80" xmlns="http://www.w3.org/2000/svg" xmlns:xlink="http://www.w3.org/1999/xlink"><linearGradient id="a"><stop offset="0" stop-color="#242da9"/><stop offset="1" stop-color="#d30837"/></linearGradient><linearGradient id="b" gradientUnits="userSpaceOnUse" x1="29.0559" x2="47.2966" xlink:href="#a" y1="6.50406" y2="30.7247"/><linearGradient id="c" gradientUnits="userSpaceOnUse" x1="9.46332" x2="30.2994" xlink:href="#a" y1="29.6334" y2="49.4088"/><clipPath id="d"><path d="m.048096.14502h79.757v58.71h-79.757z"/></clipPath><g clip-path="url(#d)"><path d="m38.924 29.693c-.0162-2.6218-1.0554-5.1315-2.8924-6.9856s-4.324-2.9034-6.9222-2.9205l9.7668-9.85502c.0155 2.62192 1.0544 5.13212 2.8916 6.98642 1.8371 1.8543 4.3245 2.9033 6.923 2.9197z" fill="url(#b)"/><path d="m19.4102 29.693c.0163-2.6222 1.0558-5.1324 2.8934-6.9866s4.3253-2.9031 6.924-2.9195l-9.7667-9.85502c-.0163 2.62222-1.0558 5.13232-2.8934 6.98652-1.8377 1.8543-4.3253 2.9032-6.92407 2.9196z" fill="#1b227f"/><path d="m49.5796 19.8323c1.3298.1311 2.6722-.0115 3.9459-.4191 1.2736-.4075 2.4521-1.0717 3.464-1.9521 1.0119-.8805 1.8363-1.959 2.4231-3.1702.5869-1.2112.9241-2.5301.9912-3.8766l8.7516 10.2438c-1.3299-.1315-2.6723.0107-3.9461.4179-1.2739.4072-2.4525 1.071-3.4647 1.9512s-1.8369 1.9585-2.4241 3.1696-.9247 2.5299-.9921 3.8764z" fill="#a8062c"/><path d="m19.4607 49.2271c-.0012-2.6177-1.0231-5.1298-2.8448-6.9935-1.8218-1.8636-4.2971-2.9292-6.89105-2.9665l9.84275-9.8011c.0012 2.6179 1.023 5.1303 2.8446 6.9945 1.8217 1.8641 4.297 2.9303 6.8912 2.9683z" fill="url(#c)"/><path d="m33.9633.14502h-9.4884c-2.7413 0-4.9635 2.24232-4.9635 5.00837v9.57411c0 2.766 2.2222 5.0083 4.9635 5.0083h9.4884c2.7413 0 4.9635-2.2423 4.9635-5.0083v-9.57411c0-2.76605-2.2222-5.00837-4.9635-5.00837z" fill="#242da9"/><path d="m53.3788 19.7841h-9.4884c-2.7413 0-4.9635 2.2423-4.9635 5.0083v9.5741c0 2.766 2.2222 5.0084 4.9635 5.0084h9.4884c2.7413 0 4.9636-2.2424 4.9636-5.0084v-9.5741c0-2.766-2.2223-5.0083-4.9636-5.0083z" fill="#d30837"/><path d="m74.8443 1.11261h-9.4884c-2.7413 0-4.9636 2.24232-4.9636 5.00837v9.57412c0 2.766 2.2223 5.0083 4.9636 5.0083h9.4884c2.7413 0 4.9635-2.2423 4.9635-5.0083v-9.57412c0-2.76605-2.2222-5.00837-4.9635-5.00837z" fill="#d30837"/><path d="m14.5 19.7841h-9.48836c-2.74129 0-4.9635443 2.2423-4.9635443 5.0083v9.5741c0 2.766 2.2222543 5.0084 4.9635443 5.0084h9.48836c2.7413 0 4.9636-2.2424 4.9636-5.0084v-9.5741c0-2.766-2.2223-5.0083-4.9636-5.0083z" fill="#242da9"/><path d="m33.8058 39.2642h-9.4884c-2.7413 0-4.9635 2.2423-4.9635 5.0084v9.5741c0 2.766 2.2222 5.0083 4.9635 5.0083h9.4884c2.7413 0 4.9636-2.2423 4.9636-5.0083v-9.5741c0-2.7661-2.2223-5.0084-4.9636-5.0084z" fill="#d30837"/><path d="m74.8417 24.7414h-8.3354c-2.7413 0-4.9636 2.2423-4.9636 5.0084v24.0941c0 2.766 2.2223 5.0083 4.9636 5.0083h8.3354c2.7412 0 4.9635-2.2423 4.9635-5.0083v-24.0941c0-2.7661-2.2223-5.0084-4.9635-5.0084z" fill="#242da9"/></g></svg>

<svg width="80" height="59" viewBox="0 0 80 59" fill="none" xmlns="http://www.w3.org/2000/svg">
<g clip-path="url(#clip0_112_754)">
<path d="M38.924 29.693C38.9078 27.0712 37.8686 24.5615 36.0316 22.7074C34.1946 20.8533 31.7076 19.804 29.1094 19.7869L38.8762 9.93188C38.8917 12.5538 39.9306 15.064 41.7678 16.9183C43.6049 18.7726 46.0923 19.8216 48.6908 19.838L38.924 29.693Z" fill="url(#paint0_linear_112_754)"/>
<path d="M19.4102 29.693C19.4265 27.0708 20.466 24.5606 22.3036 22.7064C24.1412 20.8522 26.6289 19.8033 29.2276 19.7869L19.4609 9.93188C19.4446 12.5541 18.4051 15.0642 16.5675 16.9184C14.7298 18.7727 12.2422 19.8216 9.64343 19.838L19.4102 29.693Z" fill="#1B227F"/>
<path d="M49.5796 19.8323C50.9094 19.9634 52.2518 19.8208 53.5255 19.4132C54.7991 19.0057 55.9776 18.3415 56.9895 17.4611C58.0014 16.5806 58.8258 15.5021 59.4126 14.2909C59.9995 13.0797 60.3367 11.7608 60.4038 10.4143L69.1554 20.6581C67.8255 20.5266 66.4831 20.6688 65.2093 21.076C63.9354 21.4832 62.7568 22.147 61.7446 23.0272C60.7324 23.9074 59.9077 24.9857 59.3205 26.1968C58.7333 27.4079 58.3958 28.7267 58.3284 30.0732L49.5796 19.8323Z" fill="#A8062C"/>
<path d="M19.4607 49.2271C19.4595 46.6094 18.4376 44.0973 16.6159 42.2336C14.7941 40.37 12.3188 39.3044 9.72485 39.2671L19.5676 29.466C19.5688 32.0839 20.5906 34.5963 22.4122 36.4605C24.2339 38.3246 26.7092 39.3908 29.3034 39.4288L19.4607 49.2271Z" fill="url(#paint1_linear_112_754)"/>
<path d="M33.9633 0.14502H24.4749C21.7336 0.14502 19.5114 2.38734 19.5114 5.15339V14.7275C19.5114 17.4935 21.7336 19.7358 24.4749 19.7358H33.9633C36.7046 19.7358 38.9268 17.4935 38.9268 14.7275V5.15339C38.9268 2.38734 36.7046 0.14502 33.9633 0.14502Z" fill="#242DA9"/>
<path d="M53.3788 19.7841H43.8904C41.1491 19.7841 38.9269 22.0264 38.9269 24.7924V34.3665C38.9269 37.1325 41.1491 39.3749 43.8904 39.3749H53.3788C56.1201 39.3749 58.3424 37.1325 58.3424 34.3665V24.7924C58.3424 22.0264 56.1201 19.7841 53.3788 19.7841Z" fill="#D30837"/>
<path d="M74.8443 1.11261H65.3559C62.6146 1.11261 60.3923 3.35493 60.3923 6.12098V15.6951C60.3923 18.4611 62.6146 20.7034 65.3559 20.7034H74.8443C77.5856 20.7034 79.8078 18.4611 79.8078 15.6951V6.12098C79.8078 3.35493 77.5856 1.11261 74.8443 1.11261Z" fill="#D30837"/>
<path d="M14.5 19.7841H5.01164C2.27035 19.7841 0.0480957 22.0264 0.0480957 24.7924V34.3665C0.0480957 37.1325 2.27035 39.3749 5.01164 39.3749H14.5C17.2413 39.3749 19.4636 37.1325 19.4636 34.3665V24.7924C19.4636 22.0264 17.2413 19.7841 14.5 19.7841Z" fill="#242DA9"/>
<path d="M33.8058 39.2642H24.3174C21.5761 39.2642 19.3539 41.5065 19.3539 44.2726V53.8467C19.3539 56.6127 21.5761 58.855 24.3174 58.855H33.8058C36.5471 58.855 38.7694 56.6127 38.7694 53.8467V44.2726C38.7694 41.5065 36.5471 39.2642 33.8058 39.2642Z" fill="#D30837"/>
<path d="M74.8417 24.7414H66.5063C63.765 24.7414 61.5427 26.9837 61.5427 29.7498V53.8439C61.5427 56.6099 63.765 58.8522 66.5063 58.8522H74.8417C77.5829 58.8522 79.8052 56.6099 79.8052 53.8439V29.7498C79.8052 26.9837 77.5829 24.7414 74.8417 24.7414Z" fill="#242DA9"/>
</g>
<defs>
<linearGradient id="paint0_linear_112_754" x1="29.0559" y1="6.50406" x2="47.2966" y2="30.7247" gradientUnits="userSpaceOnUse">
<stop stop-color="#242DA9"/>
<stop offset="1" stop-color="#D30837"/>
</linearGradient>
<linearGradient id="paint1_linear_112_754" x1="9.46332" y1="29.6334" x2="30.2994" y2="49.4088" gradientUnits="userSpaceOnUse">
<stop stop-color="#242DA9"/>
<stop offset="1" stop-color="#D30837"/>
</linearGradient>
<clipPath id="clip0_112_754">
<rect width="79.757" height="58.71" fill="white" transform="translate(0.0480957 0.14502)"/>
</clipPath>
</defs>
</svg>
